!!!OTL: Badzcie dusze nabozne
**kern
*staff1
=--
*clefC1
*k[]
*met(c)
*M4/4
0f
1g
1f
=-
0e
1f
1g
=-
0a
0g
=-
1f
0g
0f
1e
=-
0f
0f
=-
0e
1f
1g
=-
1f
1f
0e
!!linebreak:original
=-
0f
1e
0f
1e
=-
0d
0e
=-
0g
0f
=-
0e
1d
1c
=-
0d
0e
=-
1d
1e
1e
0d
1c
=-
0d
=-=
*-
!!title: @{OTL}, @{GTL}, ed. @{ENC}
!!!pag:
!!!GTL: Hymnbook C
!!!EFL: 
!!!YEM: Creative Commons CC/BY/NC/SA 4.0
!!!ENC: Marcin Konik
!!!END: 2015-0m-dd
!!!EED: Marcin Konik
!!!EEV: 
!!!ONB: Encoded in vim by Marcin Konik
!!!CharacterEncoding: utf-8
!!!RDF**kern: l=long note in original notation
!!!RDF**kern: i=editorial accidental
!!muse2ps: z14jc180F
!!!COM: Anonim
!!!CDT: [?]
!!!TXO: Polish
!!!ODT: 
!!!GTL: Hymnbook C
!!!ARL: Opactwo św. Wojciecha, Staniątki 
!!!voices:	1
